X:163
T: INNSBRUCK ICH MUSS DICH LASSEN
N: E0743A
O: Europa, Mitteleuropa, Deutschland
R: Abschieds - Lied, Liebe
M: 3/2
L: 1/8
K: F
F4 | F2G2A4c4 | B4A4z2
A2 | c3BG4A4 | F4E4z2
F2 | G2F2E2F2 | G4z2
G2 | F2G2A4c4 | B4A4z2
A2 | c2B2G4A4 | F4E4z2
E2 | F2G2A4G4 | F8

@@@ Tune index: 4476
